!!! OTL: Berkowitz40
!!! Chapter: 1
!!! Section: I
!!! Page: 12
!!! Mode: 
!!! Encoder: DJB
**kern
*staff1
*I"Piano
=1-
*clefF4
*k[b-e-]
*g:
*M3/4
4G\
8F\L
8E-\J
4D\
=2
4G\
8F\L
8E-\J
4D\
=3
4D\
4En\
4F#\
=4
2G\
4A\
=5
4c\
8A\L
8G\J
4F#\
=6
4G\
8F\L
8E-\J
4D\
=7
4D\
4En\
4F#\
=8
2.G\
==
*-
